X: 26352
T: Merrily Kicked The Quaker
R: jig
M: 6/8
K: Cmajor
|GEE c2d|ege dcA|GEE c2d|ecA AGE:|
ege ^faf|ged cBA|GEG c2d|ege dcA|
ege ^faf|ged cBA|GEG c2d|ecA AGE|

